icons/modern/red-apple.svg

<svg width="32" height="32" viewBox="0 0 32 32" fill="none" xmlns="http://www.w3.org/2000/svg">
<path d="M10.25 2H4.21997C4.21997 5.27 6.86998 7.91998 10.14 7.91998H16.17C16.18 4.65998 13.52 2 10.25 2Z" fill="url(#paint0_linear_18_28992)"/>
<g filter="url(#filter0_f_18_28992)">
<path d="M10.1399 7.41998C7.31465 7.41998 4.99495 5.25938 4.74268 2.5H10.2499C13.0759 2.5 15.403 4.66981 15.6486 7.41998H10.1399Z" fill="url(#paint1_linear_18_28992)"/>
</g>
<g filter="url(#filter1_f_18_28992)">
<path d="M6.95776 2.5H10.2499C13.0759 2.5 15.403 4.66981 15.6485 7.41998C13.3738 3.49072 12.4823 3.64128 6.95776 2.5Z" fill="url(#paint2_linear_18_28992)"/>
</g>
<path d="M18.09 7.38014C16.75 7.95014 15.23 7.95014 13.89 7.38014C9.69 5.61014 4.85 7.64015 3.17 11.8901C1.61 15.8401 1.61 20.2301 3.17 24.1801C4.91 28.5701 9.68 30.9401 14.23 29.6701C15.38 29.3501 16.6 29.3501 17.75 29.6701C22.3 30.9501 27.08 28.5801 28.81 24.1801C30.37 20.2301 30.37 15.8401 28.81 11.8901C27.14 7.64015 22.3 5.61014 18.09 7.38014Z" fill="url(#paint3_radial_18_28992)"/>
<path d="M18.09 7.38014C16.75 7.95014 15.23 7.95014 13.89 7.38014C9.69 5.61014 4.85 7.64015 3.17 11.8901C1.61 15.8401 1.61 20.2301 3.17 24.1801C4.91 28.5701 9.68 30.9401 14.23 29.6701C15.38 29.3501 16.6 29.3501 17.75 29.6701C22.3 30.9501 27.08 28.5801 28.81 24.1801C30.37 20.2301 30.37 15.8401 28.81 11.8901C27.14 7.64015 22.3 5.61014 18.09 7.38014Z" fill="url(#paint4_radial_18_28992)"/>
<path d="M18.09 7.38014C16.75 7.95014 15.23 7.95014 13.89 7.38014C9.69 5.61014 4.85 7.64015 3.17 11.8901C1.61 15.8401 1.61 20.2301 3.17 24.1801C4.91 28.5701 9.68 30.9401 14.23 29.6701C15.38 29.3501 16.6 29.3501 17.75 29.6701C22.3 30.9501 27.08 28.5801 28.81 24.1801C30.37 20.2301 30.37 15.8401 28.81 11.8901C27.14 7.64015 22.3 5.61014 18.09 7.38014Z" fill="url(#paint5_radial_18_28992)"/>
<path d="M18.09 7.38014C16.75 7.95014 15.23 7.95014 13.89 7.38014C9.69 5.61014 4.85 7.64015 3.17 11.8901C1.61 15.8401 1.61 20.2301 3.17 24.1801C4.91 28.5701 9.68 30.9401 14.23 29.6701C15.38 29.3501 16.6 29.3501 17.75 29.6701C22.3 30.9501 27.08 28.5801 28.81 24.1801C30.37 20.2301 30.37 15.8401 28.81 11.8901C27.14 7.64015 22.3 5.61014 18.09 7.38014Z" fill="url(#paint6_linear_18_28992)"/>
<path d="M18.09 7.38014C16.75 7.95014 15.23 7.95014 13.89 7.38014C9.69 5.61014 4.85 7.64015 3.17 11.8901C1.61 15.8401 1.61 20.2301 3.17 24.1801C4.91 28.5701 9.68 30.9401 14.23 29.6701C15.38 29.3501 16.6 29.3501 17.75 29.6701C22.3 30.9501 27.08 28.5801 28.81 24.1801C30.37 20.2301 30.37 15.8401 28.81 11.8901C27.14 7.64015 22.3 5.61014 18.09 7.38014Z" fill="url(#paint7_radial_18_28992)"/>
<defs>
<filter id="filter0_f_18_28992" x="4.24268" y="2" width="11.9059" height="5.91998" filterUnits="userSpaceOnUse" color-interpolation-filters="sRGB">
<feFlood flood-opacity="0" result="BackgroundImageFix"/>
<feBlend mode="normal" in="SourceGraphic" in2="BackgroundImageFix" result="shape"/>
<feGaussianBlur stdDeviation="0.25" result="effect1_foregroundBlur_18_28992"/>
</filter>
<filter id="filter1_f_18_28992" x="6.20776" y="1.75" width="10.1908" height="6.41998" filterUnits="userSpaceOnUse" color-interpolation-filters="sRGB">
<feFlood flood-opacity="0" result="BackgroundImageFix"/>
<feBlend mode="normal" in="SourceGraphic" in2="BackgroundImageFix" result="shape"/>
<feGaussianBlur stdDeviation="0.375" result="effect1_foregroundBlur_18_28992"/>
</filter>
<linearGradient id="paint0_linear_18_28992" x1="4.21997" y1="2" x2="16.17" y2="7.91996" gradientUnits="userSpaceOnUse">
<stop stop-color="#77B725"/>
<stop offset="1" stop-color="#A3DA32"/>
</linearGradient>
<linearGradient id="paint1_linear_18_28992" x1="4.21997" y1="2" x2="16.17" y2="7.91996" gradientUnits="userSpaceOnUse">
<stop stop-color="#8FCD20"/>
<stop offset="1" stop-color="#AEE137"/>
</linearGradient>
<linearGradient id="paint2_linear_18_28992" x1="6.95776" y1="2.5" x2="16.0623" y2="7.00022" gradientUnits="userSpaceOnUse">
<stop offset="0.260417" stop-color="#CDFF7A" stop-opacity="0"/>
<stop offset="0.739583" stop-color="#CDFF7A" stop-opacity="0.8"/>
<stop offset="1" stop-color="#CDFF7A" stop-opacity="0"/>
</linearGradient>
<radialGradient id="paint3_radial_18_28992" cx="0" cy="0" r="1" gradientUnits="userSpaceOnUse" gradientTransform="translate(4.9518 27.1868) rotate(-40.0123) scale(28.2351 28.2351)">
<stop stop-color="#992D56"/>
<stop offset="0.527913" stop-color="#FB3E4F"/>
<stop offset="1" stop-color="#FA3D3C"/>
</radialGradient>
<radialGradient id="paint4_radial_18_28992" cx="0" cy="0" r="1" gradientUnits="userSpaceOnUse" gradientTransform="translate(21.7314 14.8914) rotate(124.011) scale(21.4641 25.8021)">
<stop stop-color="#FF787A" stop-opacity="0.8"/>
<stop offset="0.386328" stop-color="#FF787A" stop-opacity="0"/>
</radialGradient>
<radialGradient id="paint5_radial_18_28992" cx="0" cy="0" r="1" gradientUnits="userSpaceOnUse" gradientTransform="translate(12.1964 14.3483) rotate(62.7745) scale(22.8971 27.5248)">
<stop stop-color="#F24961"/>
<stop offset="0.367134" stop-color="#F24961" stop-opacity="0"/>
</radialGradient>
<linearGradient id="paint6_linear_18_28992" x1="15.99" y1="6.74023" x2="15.99" y2="30.0161" gradientUnits="userSpaceOnUse">
<stop offset="0.583333" stop-color="#CB2568" stop-opacity="0"/>
<stop offset="1" stop-color="#B13591"/>
</linearGradient>
<radialGradient id="paint7_radial_18_28992" cx="0" cy="0" r="1" gradientUnits="userSpaceOnUse" gradientTransform="translate(2 9.68391) rotate(26.4334) scale(25.5083 30.6636)">
<stop stop-color="#88424B"/>
<stop offset="0.389562" stop-color="#D02953" stop-opacity="0"/>
</radialGradient>
</defs>
</svg>

<svg width="32" height="32" fill="none" xmlns="http://www.w3.org/2000/svg"><path d="M10.25 2H4.22a5.92 5.92 0 0 0 5.92 5.92h6.03C16.18 4.66 13.52 2 10.25 2Z" fill="url(#a)"/><g filter="url(#b)"><path d="M10.14 7.42A5.42 5.42 0 0 1 4.743 2.5h5.507c2.826 0 5.153 2.17 5.399 4.92h-5.51Z" fill="url(#c)"/></g><g filter="url(#d)"><path d="M6.958 2.5h3.292c2.826 0 5.153 2.17 5.399 4.92-2.275-3.93-3.167-3.779-8.691-4.92Z" fill="url(#e)"/></g><path d="M18.09 7.38c-1.34.57-2.86.57-4.2 0-4.2-1.77-9.04.26-10.72 4.51a16.722 16.722 0 0 0 0 12.29 9.227 9.227 0 0 0 11.06 5.49c1.15-.32 2.37-.32 3.52 0a9.203 9.203 0 0 0 11.06-5.49c1.56-3.95 1.56-8.34 0-12.29-1.67-4.25-6.51-6.28-10.72-4.51Z" fill="url(#f)"/><path d="M18.09 7.38c-1.34.57-2.86.57-4.2 0-4.2-1.77-9.04.26-10.72 4.51a16.722 16.722 0 0 0 0 12.29 9.227 9.227 0 0 0 11.06 5.49c1.15-.32 2.37-.32 3.52 0a9.203 9.203 0 0 0 11.06-5.49c1.56-3.95 1.56-8.34 0-12.29-1.67-4.25-6.51-6.28-10.72-4.51Z" fill="url(#g)"/><path d="M18.09 7.38c-1.34.57-2.86.57-4.2 0-4.2-1.77-9.04.26-10.72 4.51a16.722 16.722 0 0 0 0 12.29 9.227 9.227 0 0 0 11.06 5.49c1.15-.32 2.37-.32 3.52 0a9.203 9.203 0 0 0 11.06-5.49c1.56-3.95 1.56-8.34 0-12.29-1.67-4.25-6.51-6.28-10.72-4.51Z" fill="url(#h)"/><path d="M18.09 7.38c-1.34.57-2.86.57-4.2 0-4.2-1.77-9.04.26-10.72 4.51a16.722 16.722 0 0 0 0 12.29 9.227 9.227 0 0 0 11.06 5.49c1.15-.32 2.37-.32 3.52 0a9.203 9.203 0 0 0 11.06-5.49c1.56-3.95 1.56-8.34 0-12.29-1.67-4.25-6.51-6.28-10.72-4.51Z" fill="url(#i)"/><path d="M18.09 7.38c-1.34.57-2.86.57-4.2 0-4.2-1.77-9.04.26-10.72 4.51a16.722 16.722 0 0 0 0 12.29 9.227 9.227 0 0 0 11.06 5.49c1.15-.32 2.37-.32 3.52 0a9.203 9.203 0 0 0 11.06-5.49c1.56-3.95 1.56-8.34 0-12.29-1.67-4.25-6.51-6.28-10.72-4.51Z" fill="url(#j)"/><defs><radialGradient id="f" cx="0" cy="0" r="1" gradientUnits="userSpaceOnUse" gradientTransform="rotate(-40.012 39.811 6.793) scale(28.2351)"><stop stop-color="#992D56"/><stop offset=".528" stop-color="#FB3E4F"/><stop offset="1" stop-color="#FA3D3C"/></radialGradient><radialGradient id="g" cx="0" cy="0" r="1" gradientUnits="userSpaceOnUse" gradientTransform="rotate(124.011 6.908 13.222) scale(21.4641 25.8021)"><stop stop-color="#FF787A" stop-opacity=".8"/><stop offset=".386" stop-color="#FF787A" stop-opacity="0"/></radialGradient><radialGradient id="h" cx="0" cy="0" r="1" gradientUnits="userSpaceOnUse" gradientTransform="matrix(10.47528 20.3604 -24.4754 12.59242 12.196 14.348)"><stop stop-color="#F24961"/><stop offset=".367" stop-color="#F24961" stop-opacity="0"/></radialGradient><radialGradient id="j" cx="0" cy="0" r="1" gradientUnits="userSpaceOnUse" gradientTransform="rotate(26.433 -19.617 9.1) scale(25.5083 30.6636)"><stop stop-color="#88424B"/><stop offset=".39" stop-color="#D02953" stop-opacity="0"/></radialGradient><linearGradient id="a" x1="4.22" y1="2" x2="16.17" y2="7.92" gradientUnits="userSpaceOnUse"><stop stop-color="#77B725"/><stop offset="1" stop-color="#A3DA32"/></linearGradient><linearGradient id="c" x1="4.22" y1="2" x2="16.17" y2="7.92" gradientUnits="userSpaceOnUse"><stop stop-color="#8FCD20"/><stop offset="1" stop-color="#AEE137"/></linearGradient><linearGradient id="e" x1="6.958" y1="2.5" x2="16.062" y2="7" gradientUnits="userSpaceOnUse"><stop offset=".26" stop-color="#CDFF7A" stop-opacity="0"/><stop offset=".74" stop-color="#CDFF7A" stop-opacity=".8"/><stop offset="1" stop-color="#CDFF7A" stop-opacity="0"/></linearGradient><linearGradient id="i" x1="15.99" y1="6.74" x2="15.99" y2="30.016" gradientUnits="userSpaceOnUse"><stop offset=".583" stop-color="#CB2568" stop-opacity="0"/><stop offset="1" stop-color="#B13591"/></linearGradient><filter id="b" x="4.243" y="2" width="11.906" height="5.92" filterUnits="userSpaceOnUse" color-interpolation-filters="sRGB"><feFlood flood-opacity="0" result="BackgroundImageFix"/><feBlend in="SourceGraphic" in2="BackgroundImageFix" result="shape"/><feGaussianBlur stdDeviation=".25" result="effect1_foregroundBlur_18_28992"/></filter><filter id="d" x="6.208" y="1.75" width="10.191" height="6.42" filterUnits="userSpaceOnUse" color-interpolation-filters="sRGB"><feFlood flood-opacity="0" result="BackgroundImageFix"/><feBlend in="SourceGraphic" in2="BackgroundImageFix" result="shape"/><feGaussianBlur stdDeviation=".375" result="effect1_foregroundBlur_18_28992"/></filter></defs></svg>
